Numix/48/actions/chronometer.svg

<?xml version="1.0" encoding="UTF-8" standalone="no"?>
<svg
   xmlns:dc="http://purl.org/dc/elements/1.1/"
   xmlns:cc="http://creativecommons.org/ns#"
   xmlns:rdf="http://www.w3.org/1999/02/22-rdf-syntax-ns#"
   xmlns:svg="http://www.w3.org/2000/svg"
   xmlns="http://www.w3.org/2000/svg"
   xmlns:sodipodi="http://sodipodi.sourceforge.net/DTD/sodipodi-0.dtd"
   xmlns:inkscape="http://www.inkscape.org/namespaces/inkscape"
   width="48"
   height="48"
   viewBox="0 0 48 48"
   id="svg2"
   version="1.1"
   inkscape:version="0.91 r13725"
   sodipodi:docname="chronometer.svg">
  <metadata
     id="metadata14">
    <rdf:RDF>
      <cc:Work
         rdf:about="">
        <dc:format>image/svg+xml</dc:format>
        <dc:type
           rdf:resource="http://purl.org/dc/dcmitype/StillImage" />
        <dc:title />
      </cc:Work>
    </rdf:RDF>
  </metadata>
  <defs
     id="defs12" />
  <sodipodi:namedview
     pagecolor="#ffffff"
     bordercolor="#666666"
     borderopacity="1"
     objecttolerance="10"
     gridtolerance="10"
     guidetolerance="10"
     inkscape:pageopacity="0"
     inkscape:pageshadow="2"
     inkscape:window-width="1366"
     inkscape:window-height="704"
     id="namedview10"
     showgrid="false"
     inkscape:zoom="2.1054688"
     inkscape:cx="-85.489685"
     inkscape:cy="24"
     inkscape:window-x="0"
     inkscape:window-y="27"
     inkscape:window-maximized="1"
     inkscape:current-layer="svg2">
    <inkscape:grid
       type="xygrid"
       id="grid4185" />
  </sodipodi:namedview>
  <path
     style="fill:#ffffff;fill-rule:evenodd"
     d="m 42,26.002605 a 18,18.000078 0 0 1 -35.9999996,0 18,18.000078 0 1 1 35.9999996,0 z"
     id="path4"
     inkscape:connector-curvature="0" />
  <path
     style="fill:#268bd2"
     d="m 23.96875,12.968098 c -1.101562,0.0156 -1.984374,0.929688 -1.96875,2.03125 l 0,11 c 0,0.46875 0.16406,0.921876 0.46875,1.28125 l 5,6 c 0.445312,0.601562 1.179688,0.898438 1.914062,0.789062 0.734376,-0.11718 1.34375,-0.625 1.585938,-1.328124 0.242188,-0.703126 0.07032,-1.484376 -0.4375,-2.023438 L 26,25.280598 26,14.999348 c 0.0078,-0.539062 -0.203124,-1.0625 -0.585938,-1.445312 -0.382812,-0.382812 -0.90625,-0.59375 -1.445312,-0.585938 z"
     id="path6"
     inkscape:connector-curvature="0" />
  <path
     id="path4138"
     d="M 24,6 C 12.976562,6 4,14.976562 4,26 4,37.023438 12.976562,46 24,46 35.023438,46 44,37.023438 44,26 44,14.976562 35.023438,6 24,6 Z m 0,4 c 8.859376,0 16,7.140624 16,16 0,8.859376 -7.140624,16 -16,16 C 15.140624,42 8,34.859376 8,26 8,17.140624 15.140624,10 24,10 Z"
     style="fill:#aaaaaa"
     inkscape:connector-curvature="0" />
  <path
     sodipodi:nodetypes="sccccss"
     inkscape:connector-curvature="0"
     id="path4151"
     d="m 5.6152236,10.44365 c -0.7834742,0.783476 -0.7834742,2.044954 0,2.828428 0.9428092,0.942808 1.8856182,1.885618 2.8284272,2.828426 C 10.800674,13.743482 13.157696,11.38646 15.514718,9.029438 14.57191,8.086628 13.6291,7.14382 12.686292,6.20101 c -0.783475,-0.783474 -2.044953,-0.783474 -2.8284276,0 z"
     style="opacity:1;fill:#aaaaaa;fill-opacity:1;stroke:none;stroke-width:3;stroke-linecap:round;stroke-linejoin:round;stroke-miterlimit:4;stroke-dasharray:none;stroke-opacity:1" />
  <rect
     style="opacity:1;fill:#aaaaaa;fill-opacity:1;stroke:none;stroke-width:3;stroke-linecap:round;stroke-linejoin:round;stroke-miterlimit:4;stroke-dasharray:none;stroke-opacity:1"
     id="rect4157"
     width="8"
     height="6"
     x="20"
     y="2"
     rx="2"
     ry="2" />
  <path
     style="opacity:1;fill:#aaaaaa;fill-opacity:1;stroke:none;stroke-width:3;stroke-linecap:round;stroke-linejoin:round;stroke-miterlimit:4;stroke-dasharray:none;stroke-opacity:1"
     d="m 42.384776,10.44365 c 0.783474,0.783476 0.783474,2.044954 0,2.828428 -0.942808,0.94281 -1.885618,1.885618 -2.828426,2.828426 C 37.199326,13.743482 34.842304,11.38646 32.485282,9.029438 33.42809,8.086628 34.3709,7.14382 35.313708,6.20101 c 0.783474,-0.783474 2.044954,-0.783474 2.828428,0 z"
     id="path4169"
     inkscape:connector-curvature="0"
     sodipodi:nodetypes="sccccss" />
</svg>

<svg xmlns="http://www.w3.org/2000/svg" viewBox="0 0 48 48">
 <path d="m 42 26 a 18 18 0 0 1 -36 0 18 18 0 1 1 36 0 z" style="fill:#fff;fill-rule:evenodd"/>
 <path d="m 23.969 12.968 c -1.102 0.016 -1.984 0.93 -1.969 2.031 l 0 11 c 0 0.469 0.164 0.922 0.469 1.281 l 5 6 c 0.445 0.602 1.18 0.898 1.914 0.789 0.734 -0.117 1.344 -0.625 1.586 -1.328 0.242 -0.703 0.07 -1.484 -0.438 -2.023 l -4.531 -5.437 0 -10.281 c 0.008 -0.539 -0.203 -1.063 -0.586 -1.445 -0.383 -0.383 -0.906 -0.594 -1.445 -0.586 z" style="fill:#268bd2"/>
 <path d="m 24 6 c -11.02 0 -20 8.977 -20 20 0 11.02 8.977 20 20 20 11.02 0 20 -8.977 20 -20 0 -11.02 -8.977 -20 -20 -20 m 0 4 c 8.859 0 16 7.141 16 16 0 8.859 -7.141 16 -16 16 c -8.859 0 -16 -7.141 -16 -16 0 -8.859 7.141 -16 16 -16" style="fill:#aaa"/>
 <path d="m 5.615 10.444 c -0.783 0.783 -0.783 2.045 0 2.828 0.943 0.943 1.886 1.886 2.828 2.828 c 2.357 -2.357 4.714 -4.714 7.07 -7.07 -0.943 -0.943 -1.886 -1.886 -2.828 -2.828 c -0.783 -0.783 -2.045 -0.783 -2.828 0 z" style="fill:#aaa;opacity:1;fill-opacity:1;stroke:none"/>
 <rect width="8" height="6" x="20" y="2" rx="2" style="fill:#aaa;opacity:1;fill-opacity:1;stroke:none"/>
 <path d="m 42.38 10.444 c 0.783 0.783 0.783 2.045 0 2.828 -0.943 0.943 -1.886 1.886 -2.828 2.828 c -2.357 -2.357 -4.714 -4.714 -7.07 -7.07 0.943 -0.943 1.886 -1.886 2.828 -2.828 c 0.783 -0.783 2.045 -0.783 2.828 0 z" style="fill:#aaa;opacity:1;fill-opacity:1;stroke:none"/>
</svg>
